X: 4
T: The Siege Of Ennis
R: polka
M: 2/4
L: 1/8
K: Gmaj
|: F/E/ |D>E DE | G>F GA | Bd AB/A/ | GE GE |
D>E DE | G>F GA | Bd AB/A/ | G2 G :|
A |Bd dB | ce ec | Bd AB/A/ | GE ED |
B/c/d dB | ce e>f | g/f/e fd | e2 ef |
ge fd | e/f/e/d/ BA | Bd AB/A/ | GE G/F/E |
D>E DE | G>F GA | Bd AB/A/ | G2 G |]
A |Bd Bd | Bd d>d | ed Bd | ed d>c |
Bd Bd | B/c/d d>d | ed BA | AG G>F |
GB d>d | ed c>c | dB G>A | BA AG/F/ |
GB d^c/d/ | e/f/e/d/ cB/c/ | dB GE | ED D |]


Tune 1640	Setting 25580

